X:1
T:Living for Christ
T:Living for Christ
T:Charles Edward Pollock
T:William H. Loomis, 1900
T:Public Domain Courtesy of the Cyber Hymnal™
C:Charles Edward Pollock
Z:Public Domain
Z:Courtesy of the Cyber Hymnal™
%%score ( 1 2 ) ( 3 4 )
L:1/8
Q:1/4=90
M:6/8
K:Bb
V:1 treble 
V:2 treble 
V:3 bass 
V:4 bass 
V:1
 ([B,D]/[CE]/) | ([DF][DF])[DF] ([DF][EG])[EA] | [DB]3 [DF]2 [DF] | [EG][FA][GB] ([Gc][GB])[EG] | %4
w: 1.~In~this *|life * of pitfalls * and|dan- gers ~|We should be tender * and|
w: 2.~A *|kind * word loving- * ly|spo- ken May|cheer a faint heart~by * the|
w: 3.~There~are *|words~that * should be * un-|spo- ken, And|deeds that were best * un-|
 [DF]3- [DF]2 ([DF]/[DF]/) | ([DF][DB])[DB] ([DB][Ec])[Fd] | %6
w: true; * Ever *|trying * to let * our|
w: way; * Let *|us~not * be one- * day|
w: done, * If *|we~would * be like * the|
 [Gc]3 [EG]2 [Ge]/[Ge]/ ([Fd][Ec])[DB] ([CA][DB])[Ec] | [DB]3- [DB]2 ||"^Refrain" [FB]/[FB]/ | %9
w: light shine, And be Christ- * ians through * and|through. *||
w: Christ- ians, But be Christ- * like ev- * ery|day. *|We should|
w: Sav- ior And a crown * with stars * be|won. *||
 [GB][GB][GB] ([GB][FA])[EG] | [DF]3 [DB]2 [FB] | [Fc][Fc][Fc] (cB)[Fc] | [Fd]3- [Fd]2 z | %13
w: ||||
w: go where our Mas- * ter|calls us, And|do what He’d have * us|do; *|
w: ||||
 [EG][EG][EG] [GB][FA][EG] | [DF]3 [DB]2 [DB]/[DB]/ | [CA][DB][Ec] [Ec][DB][CA] | [DB]3- [DB]2 |] %17
w: ||||
w: Trust- ing for strength in Him|al- ways, And the|grace that will car- ry us|through. *|
w: ||||
V:2
 x | x6 | x6 | x6 | x6 | x6 | x12 | x5 || x | x6 | x6 | x3 F2 x | x6 | x6 | x6 | x6 | x5 |] %17
V:3
 ([B,,F,]/[B,,F,]/) | ([B,,B,][B,,B,])[B,,B,] [B,,B,][B,,B,][B,,B,] | [B,,B,]3 [B,,B,]2 [B,,B,] | %3
 [E,B,][E,B,][E,B,] ([E,B,][E,B,])[E,B,] | [B,,B,]3- [B,,B,]2 ([B,,B,]/[B,,B,]/) | %5
 ([B,,B,][B,,B,])[B,,B,] [B,,B,]2 [B,,B,] | %6
 [E,B,]3 [E,B,]2 [E,B,]/[E,B,]/ (B,A,)[F,B,] (CB,)[F,A,] | [B,,B,]3- [B,,B,]2 || [D,B,]/[D,B,]/ | %9
 [E,B,][E,B,][E,B,] [E,B,]2 [E,B,] | [B,,B,]3 [B,,F,]2 [D,B,] | [F,A,][F,A,][F,A,] (A,G,)[F,A,] | %12
 B,3- B,2 z | [E,B,][E,B,][E,B,] [E,B,][E,B,][E,B,] | [B,,B,]3 [B,,F,]2 [B,,F,]/[B,,F,]/ | %15
 F,F,F, F,F,F, | [B,,F,]3- [B,,F,]2 |] %17
V:4
 x | x6 | x6 | x6 | x6 | x6 | x6 F,2 F,2 x2 | x5 || x | x6 | x6 | x3 F,2 x | B,3- B,2 x | x6 | x6 | %15
 F,F,F, F,F,F, | x5 |] %17

